client/src/components/buttons/MyClan/btnMyClan.svg

<svg width="104" height="104" viewBox="0 0 104 104" fill="none" xmlns="http://www.w3.org/2000/svg">
<path d="M97.2996 97.2996C99.8955 94.7036 81.7187 72.3178 56.7004 47.2996C31.6822 22.2813 9.29641 4.10447 6.70043 6.70045C4.10445 9.29642 22.2813 31.6822 47.2996 56.7004C72.3178 81.7187 94.7036 99.8956 97.2996 97.2996Z" fill="#FF8A00" stroke="#1B1A1A" stroke-width="2.5" stroke-miterlimit="10"/>
<path d="M6.70044 97.2996C4.10446 94.7036 22.2813 72.3178 47.2996 47.2996C72.3178 22.2813 94.7036 4.10447 97.2996 6.70045C99.8955 9.29642 81.7187 31.6822 56.7004 56.7004C31.6822 81.7187 9.29641 99.8956 6.70044 97.2996Z" fill="#FF8A00" stroke="#1B1A1A" stroke-width="2.5" stroke-miterlimit="10"/>
<path d="M52.5837 87.1766C72.5076 87.1766 88.6592 71.025 88.6592 51.1011C88.6592 31.1772 72.5076 15.0257 52.5837 15.0257C32.6598 15.0257 16.5083 31.1772 16.5083 51.1011C16.5083 71.025 32.6598 87.1766 52.5837 87.1766Z" fill="#FFDE00" stroke="#1B1A1A" stroke-width="2.5" stroke-miterlimit="10"/>
<path d="M52.5822 81.4573C69.3475 81.4573 82.9384 67.8664 82.9384 51.1011C82.9384 34.3359 69.3475 20.745 52.5822 20.745C35.817 20.745 22.2261 34.3359 22.2261 51.1011C22.2261 67.8664 35.817 81.4573 52.5822 81.4573Z" fill="#FF8A00" stroke="#1B1A1A" stroke-width="2.5" stroke-miterlimit="10"/>
<text transform="translate(24 38)" fill="#1B1A1A" xml:space="preserve" style="white-space: pre" font-family="Helvetica Neue" font-size="16" font-weight="bold" letter-spacing="0em"><tspan x="17.0938" y="10.064">My </tspan><tspan x="11.1719" y="28.064">Clan</tspan></text>
<path d="M53.0063 20.9538C52.5668 17.7673 52.0969 12.9087 56.6271 8.16317C63.107 1.37567 70.2505 4.58828 70.2505 4.58828C70.2505 4.58828 64.6984 7.97238 63.565 9.16197C60.8971 11.9555 61.454 21.1327 61.454 21.1327L53.0063 20.9538Z" fill="#FF8A00" stroke="#1B1A1A" stroke-width="2.5" stroke-miterlimit="10"/>
<path d="M51.131 20.9538C51.5704 17.7673 52.0403 12.9087 47.5101 8.16317C41.0302 1.37567 33.8867 4.58828 33.8867 4.58828C33.8867 4.58828 39.4388 7.97238 40.5722 9.16197C43.2401 11.9555 42.6832 21.1327 42.6832 21.1327L51.131 20.9538Z" fill="#FF8A00" stroke="#1B1A1A" stroke-width="2.5" stroke-miterlimit="10"/>
<path d="M22.4036 49.6817C19.2171 50.1212 14.3584 50.5911 9.61294 46.0609C2.82544 39.5809 6.03805 32.4375 6.03805 32.4375C6.03805 32.4375 9.42215 37.9896 10.6117 39.123C13.4053 41.7909 22.5825 41.234 22.5825 41.234L22.4036 49.6817Z" fill="#FF8A00" stroke="#1B1A1A" stroke-width="2.5" stroke-miterlimit="10"/>
<path d="M22.4036 51.5571C19.2171 51.1176 14.3584 50.6477 9.61294 55.178C2.82544 61.6579 6.03805 68.8014 6.03805 68.8014C6.03805 68.8014 9.42215 63.2493 10.6117 62.1158C13.4053 59.4479 22.5825 60.0048 22.5825 60.0048L22.4036 51.5571Z" fill="#FF8A00" stroke="#1B1A1A" stroke-width="2.5" stroke-miterlimit="10"/>
<path d="M50.4063 81.4697C50.8458 84.6562 51.3157 89.5149 46.7855 94.2604C40.3056 101.048 33.1621 97.8352 33.1621 97.8352C33.1621 97.8352 38.7142 94.4511 39.8476 93.2616C42.5155 90.468 41.9586 81.2908 41.9586 81.2908L50.4063 81.4697Z" fill="#FF8A00" stroke="#1B1A1A" stroke-width="2.5" stroke-miterlimit="10"/>
<path d="M52.2816 81.4697C51.8422 84.6562 51.3723 89.5149 55.9025 94.2604C62.3824 101.048 69.5259 97.8352 69.5259 97.8352C69.5259 97.8352 63.9738 94.4511 62.8403 93.2616C60.1725 90.468 60.7294 81.2908 60.7294 81.2908L52.2816 81.4697Z" fill="#FF8A00" stroke="#1B1A1A" stroke-width="2.5" stroke-miterlimit="10"/>
<path d="M82.1936 52.2817C85.3801 51.8422 90.2387 51.3723 94.9842 55.9026C101.772 62.3825 98.5591 69.526 98.5591 69.526C98.5591 69.526 95.175 63.9739 93.9854 62.8404C91.1919 60.1725 82.0147 60.7295 82.0147 60.7295L82.1936 52.2817Z" fill="#FF8A00" stroke="#1B1A1A" stroke-width="2.5" stroke-miterlimit="10"/>
<path d="M82.1936 50.4064C85.3801 50.8459 90.2387 51.3158 94.9842 46.7855C101.772 40.3056 98.5591 33.1621 98.5591 33.1621C98.5591 33.1621 95.175 38.7142 93.9854 39.8477C91.1919 42.5156 82.0147 41.9587 82.0147 41.9587L82.1936 50.4064Z" fill="#FF8A00" stroke="#1B1A1A" stroke-width="2.5" stroke-miterlimit="10"/>
<circle cx="51.6376" cy="20.4783" r="9.25725" fill="#FFDE00" stroke="#1B1A1A" stroke-width="2.5"/>
<circle cx="22.6523" cy="50.1884" r="9.25725" transform="rotate(-90 22.6523 50.1884)" fill="#FFDE00" stroke="#1B1A1A" stroke-width="2.5"/>
<circle cx="82.797" cy="50.1884" r="9.25725" transform="rotate(-90 82.797 50.1884)" fill="#FFDE00" stroke="#1B1A1A" stroke-width="2.5"/>
<circle cx="51.6376" cy="79.1739" r="9.25725" fill="#FFDE00" stroke="#1B1A1A" stroke-width="2.5"/>
</svg>

<?xml version="1.0" encoding="utf-8"?>
<!-- Generator: Adobe Illustrator 24.1.3, SVG Export Plug-In . SVG Version: 6.00 Build 0)  -->
<svg version="1.1" id="Layer_1" xmlns="http://www.w3.org/2000/svg" xmlns:xlink="http://www.w3.org/1999/xlink" x="0px" y="0px"
	 viewBox="0 0 104 104" style="enable-background:new 0 0 104 104;" xml:space="preserve">
<style type="text/css">
	.st0{fill:#FF8A00;stroke:#1B1A1A;stroke-width:2.5;stroke-miterlimit:10;}
	.st1{fill:#FFDE00;stroke:#1B1A1A;stroke-width:2.5;stroke-miterlimit:10;}
	.st2{fill:#1B1A1A;}
	.st3{fill:#FFDE00;stroke:#1B1A1A;stroke-width:2.5;}
</style>
<path class="st0" d="M97.3,97.3c2.6-2.6-15.6-25-40.6-50c-25-25-47.4-43.2-50-40.6c-2.6,2.6,15.6,25,40.6,50
	C72.3,81.7,94.7,99.9,97.3,97.3z"/>
<path class="st0" d="M6.7,97.3c-2.6-2.6,15.6-25,40.6-50c25-25,47.4-43.2,50-40.6c2.6,2.6-15.6,25-40.6,50
	C31.7,81.7,9.3,99.9,6.7,97.3z"/>
<path class="st1" d="M52.6,87.2c19.9,0,36.1-16.2,36.1-36.1S72.5,15,52.6,15S16.5,31.2,16.5,51.1S32.7,87.2,52.6,87.2z"/>
<path class="st0" d="M52.6,81.5c16.8,0,30.4-13.6,30.4-30.4c0-16.8-13.6-30.4-30.4-30.4c-16.8,0-30.4,13.6-30.4,30.4
	C22.2,67.9,35.8,81.5,52.6,81.5z"/>
<path class="st2" d="M42.2,34.6V46h2.4v-8h0l2.8,8h1.9l2.8-8.1h0V46h2.4V34.6H51l-2.5,7.9h0l-2.7-7.9H42.2z M60.6,47l3.5-9.3h-2.4
	l-1.8,5.7h0l-1.9-5.7h-2.4l2.9,7.8c0.1,0.2,0.1,0.3,0.1,0.5c0,0.2-0.1,0.5-0.2,0.7c-0.1,0.2-0.4,0.3-0.7,0.4c-0.2,0-0.4,0-0.7,0
	c-0.2,0-0.4,0-0.7-0.1v1.9c0.2,0,0.5,0,0.7,0c0.2,0,0.5,0,0.7,0c0.8,0,1.4-0.1,1.8-0.4C60,48.2,60.3,47.7,60.6,47z M43.9,56.4h2.4
	c-0.1-0.7-0.3-1.2-0.5-1.8c-0.3-0.5-0.7-0.9-1.1-1.3c-0.4-0.4-0.9-0.6-1.5-0.8c-0.6-0.2-1.1-0.3-1.8-0.3c-0.9,0-1.7,0.2-2.4,0.5
	c-0.7,0.3-1.3,0.7-1.8,1.3s-0.8,1.2-1.1,1.9c-0.3,0.7-0.4,1.5-0.4,2.4c0,0.8,0.1,1.6,0.4,2.3c0.3,0.7,0.6,1.3,1.1,1.9s1.1,1,1.8,1.3
	c0.7,0.3,1.5,0.4,2.4,0.4c0.7,0,1.3-0.1,1.9-0.3c0.6-0.2,1.1-0.5,1.5-0.9c0.4-0.4,0.8-0.9,1.1-1.5c0.3-0.6,0.4-1.2,0.5-1.9H44
	c-0.1,0.8-0.4,1.4-0.8,1.9c-0.4,0.5-1,0.7-1.8,0.7c-0.6,0-1-0.1-1.4-0.3c-0.4-0.2-0.7-0.5-1-0.9c-0.2-0.4-0.4-0.8-0.5-1.2
	c-0.1-0.5-0.2-0.9-0.2-1.4c0-0.5,0.1-1,0.2-1.5c0.1-0.5,0.3-0.9,0.5-1.2c0.2-0.4,0.6-0.7,1-0.9c0.4-0.2,0.9-0.3,1.4-0.3
	c0.3,0,0.6,0.1,0.9,0.2c0.3,0.1,0.5,0.2,0.8,0.4s0.4,0.4,0.6,0.6C43.8,55.9,43.8,56.1,43.9,56.4z M48,52.6V64h2.3V52.6H48z
	 M51.9,58.3c0-0.5,0.2-1,0.4-1.3c0.2-0.4,0.5-0.6,0.9-0.8c0.4-0.2,0.8-0.4,1.2-0.4c0.5-0.1,0.9-0.1,1.4-0.1c0.4,0,0.8,0,1.3,0.1
	c0.4,0.1,0.8,0.2,1.2,0.3c0.4,0.2,0.6,0.4,0.9,0.7c0.2,0.3,0.3,0.7,0.3,1.2v4.3c0,0.4,0,0.7,0.1,1.1c0,0.3,0.1,0.6,0.2,0.8h-2.3
	c0-0.1-0.1-0.3-0.1-0.4c0-0.1,0-0.3,0-0.4c-0.4,0.4-0.8,0.6-1.3,0.8c-0.5,0.1-1,0.2-1.5,0.2c-0.4,0-0.8,0-1.1-0.1
	c-0.3-0.1-0.6-0.2-0.9-0.4c-0.3-0.2-0.5-0.5-0.6-0.8c-0.1-0.3-0.2-0.7-0.2-1.1c0-0.5,0.1-0.9,0.2-1.2c0.2-0.3,0.4-0.6,0.6-0.7
	c0.3-0.2,0.6-0.3,0.9-0.4c0.3-0.1,0.7-0.2,1-0.2c0.3-0.1,0.7-0.1,1-0.1c0.3,0,0.6-0.1,0.9-0.1s0.5-0.2,0.6-0.3
	c0.1-0.1,0.2-0.3,0.2-0.5c0-0.2,0-0.4-0.1-0.6c-0.1-0.1-0.2-0.3-0.3-0.3c-0.1-0.1-0.3-0.1-0.5-0.2c-0.2,0-0.4,0-0.6,0
	c-0.4,0-0.8,0.1-1.1,0.3c-0.3,0.2-0.4,0.5-0.4,1H51.9z M57.2,60c-0.1,0.1-0.2,0.2-0.4,0.2c-0.1,0-0.3,0.1-0.5,0.1
	c-0.2,0-0.3,0.1-0.5,0.1c-0.2,0-0.4,0-0.5,0.1c-0.2,0-0.3,0.1-0.5,0.1c-0.2,0.1-0.3,0.1-0.4,0.2c-0.1,0.1-0.2,0.2-0.3,0.3
	c-0.1,0.1-0.1,0.3-0.1,0.5c0,0.2,0,0.4,0.1,0.5c0.1,0.1,0.2,0.3,0.3,0.3c0.1,0.1,0.3,0.1,0.4,0.2c0.2,0,0.3,0,0.5,0
	c0.4,0,0.8-0.1,1-0.2c0.2-0.1,0.4-0.3,0.5-0.5c0.1-0.2,0.2-0.4,0.2-0.6c0-0.2,0-0.4,0-0.5V60z M61.2,55.7V64h2.3v-4.3
	c0-0.8,0.1-1.4,0.4-1.8c0.3-0.4,0.7-0.6,1.3-0.6c0.5,0,0.9,0.2,1.1,0.5c0.2,0.3,0.3,0.8,0.3,1.5V64H69v-5.1c0-0.5,0-1-0.1-1.4
	c-0.1-0.4-0.2-0.8-0.5-1.1c-0.2-0.3-0.5-0.5-0.9-0.7c-0.4-0.2-0.9-0.3-1.5-0.3c-0.5,0-0.9,0.1-1.4,0.3c-0.5,0.2-0.8,0.6-1.1,1h0
	v-1.2H61.2z"/>
<path class="st0" d="M53,21c-0.4-3.2-0.9-8,3.6-12.8c6.5-6.8,13.6-3.6,13.6-3.6S64.7,8,63.6,9.2c-2.7,2.8-2.1,12-2.1,12L53,21z"/>
<path class="st0" d="M51.1,21c0.4-3.2,0.9-8-3.6-12.8C41,1.4,33.9,4.6,33.9,4.6s5.6,3.4,6.7,4.6c2.7,2.8,2.1,12,2.1,12L51.1,21z"/>
<path class="st0" d="M22.4,49.7c-3.2,0.4-8,0.9-12.8-3.6C2.8,39.6,6,32.4,6,32.4s3.4,5.6,4.6,6.7c2.8,2.7,12,2.1,12,2.1L22.4,49.7z"
	/>
<path class="st0" d="M22.4,51.6c-3.2-0.4-8-0.9-12.8,3.6C2.8,61.7,6,68.8,6,68.8s3.4-5.6,4.6-6.7c2.8-2.7,12-2.1,12-2.1L22.4,51.6z"
	/>
<path class="st0" d="M50.4,81.5c0.4,3.2,0.9,8-3.6,12.8c-6.5,6.8-13.6,3.6-13.6,3.6s5.6-3.4,6.7-4.6c2.7-2.8,2.1-12,2.1-12
	L50.4,81.5z"/>
<path class="st0" d="M52.3,81.5c-0.4,3.2-0.9,8,3.6,12.8c6.5,6.8,13.6,3.6,13.6,3.6s-5.6-3.4-6.7-4.6c-2.7-2.8-2.1-12-2.1-12
	L52.3,81.5z"/>
<path class="st0" d="M82.2,52.3c3.2-0.4,8-0.9,12.8,3.6c6.8,6.5,3.6,13.6,3.6,13.6S95.2,64,94,62.8c-2.8-2.7-12-2.1-12-2.1
	L82.2,52.3z"/>
<path class="st0" d="M82.2,50.4c3.2,0.4,8,0.9,12.8-3.6c6.8-6.5,3.6-13.6,3.6-13.6s-3.4,5.6-4.6,6.7C91.2,42.5,82,42,82,42
	L82.2,50.4z"/>
<circle class="st3" cx="51.6" cy="20.5" r="9.3"/>
<circle class="st3" cx="22.7" cy="50.2" r="9.3"/>
<circle class="st3" cx="82.8" cy="50.2" r="9.3"/>
<circle class="st3" cx="51.6" cy="79.2" r="9.3"/>
</svg>
